Numix-Light/24/status/printer-symbolic.svg

<svg xmlns="http://www.w3.org/2000/svg" viewBox="0 0 24 24">
 <path d="m 6.5 4 c -0.276 0 -0.5 0.224 -0.5 0.5 l 0 6.5 -1.5 0 c -0.277 0 -0.5 0.223 -0.5 0.5 l 0 6 c 0 0.277 0.223 0.5 0.5 0.5 l 1.5 0 0 1.5 c 0 0.277 0.223 0.5 0.5 0.5 l 11 0 c 0.277 0 0.5 -0.223 0.5 -0.5 l 0 -1.5 1.5 0 c 0.277 0 0.5 -0.223 0.5 -0.5 l 0 -6 c 0 -0.277 -0.223 -0.5 -0.5 -0.5 l -1.5 0 0 -5 -2 -2 -9.5 0 z m 0.5 1 8 0 0 2 2 0 0 4 -10 0 0 -6 z m 0 11 10 0 0 3 -10 0 0 -3 z m 11.5 0 a 0.5 0.5 0 0 1 0.5 0.5 0.5 0.5 0 0 1 -0.5 0.5 0.5 0.5 0 0 1 -0.5 -0.5 0.5 0.5 0 0 1 0.5 -0.5 z" style="visibility:visible;shape-rendering:auto;color-interpolation-filters:linearRGB;fill:#353535;opacity:1;image-rendering:auto;fill-opacity:1;text-rendering:auto;stroke:none;display:inline;color:#000;fill-rule:nonzero;color-rendering:auto;color-interpolation:sRGB"/>
</svg>

<svg xmlns="http://www.w3.org/2000/svg" viewBox="0 0 24 24">
 <path d="M 6.5 4 C 6.224 4 6 4.224 6 4.5 L 6 11 L 4.5 11 C 4.223 11 4 11.223 4 11.5 L 4 17.5 C 4 17.777 4.223 18 4.5 18 L 6 18 L 6 19.5 C 6 19.777 6.223 20 6.5 20 L 17.5 20 C 17.777 20 18 19.777 18 19.5 L 18 18 L 19.5 18 C 19.777 18 20 17.777 20 17.5 L 20 11.5 C 20 11.223 19.777 11 19.5 11 L 18 11 L 18 6 L 16 4 L 6.5 4 z M 7 5 L 15 5 L 15 7 L 17 7 L 17 11 L 7 11 L 7 5 z M 5 12 L 19 12 L 19 15 L 5 15 L 5 12 z M 7 16 L 17 16 L 17 19 L 7 19 L 7 16 z M 18.5 16 A 0.5 0.5 0 0 1 19 16.5 A 0.5 0.5 0 0 1 18.5 17 A 0.5 0.5 0 0 1 18 16.5 A 0.5 0.5 0 0 1 18.5 16 z " style="visibility:visible;shape-rendering:auto;color-interpolation-filters:linearRGB;fill:#353535;opacity:1;image-rendering:auto;fill-opacity:1;text-rendering:auto;stroke:none;display:inline;color:#000;fill-rule:nonzero;color-rendering:auto;color-interpolation:sRGB"/>
</svg>
